assets/images/logo-fifthtry-dark.svg

<svg fill="none" height="32" viewBox="0 0 93 32" width="93" xmlns="http://www.w3.org/2000/svg"><path d="m69.7583 1.71182c-.0997-.17208-.4827-.51212-1.1491-1.02004-.7242-.558338-1.1649-.7786553-1.3223-.6611093-.3621.2728503-.7504.5834573-1.1649.9318683-.4513.382031-.8055.701091-1.0626.957141-.4775.44916-.9078.85631-1.2908 1.22156-.7189.69257-1.3118 1.28658-1.7788 1.78193-.0315-.02521-.4434-.28129-1.2357-.7682-.7714-.47437-1.1623-.71989-1.1729-.73667-.1784.12167-.5509.46382-1.1176 1.02629-.5667.56678-.8501.87741-.8501.93194l2.5502 2.19128c.0053.00413.711.62967 2.1172 1.87637.0577.03365.1076.05042.1496.05042.2413-.32326.6113-.78286 1.1098-1.37898.7293-.86053 1.485-1.70224 2.2668-2.52498.5352-.56247 1.4115-1.40621 2.6289-2.53127.913-.84796 1.3538-1.29712 1.3223-1.34754z" fill="#2dd4bf"/><path d="m50.3797 18.2969c1.1112-.7356 2.1726-.9603 3.3355-.7548 1.7212.2939 2.9625 1.4982 3.0409 3.2383.0918 2.0667.0516 4.1392.0631 6.2097 0 .5359-.2735.8029-.809.801-.482 0-.9563 0-1.4478 0-.7267-.0135-.9333-.2171-.9371-.9604-.0096-1.7709 0-3.5418-.0115-5.3127-.0115-1.0622-.6024-1.6-1.6563-1.5789-1.0155.0212-1.5414.5263-1.5625 1.6096-.0306 1.6787-.0115 3.3574-.0153 5.0381 0 1.066-.1396 1.2062-1.1762 1.2081-2.1038 0-2.0407.1805-2.0349-2.0072.0095-3.4726 0-6.9472 0-10.4218 0-.5512-.0727-1.2638.5565-1.4213.6984-.1582 1.4239-.151 2.1191.0211.2544.0615.4781.7395.5068 1.1524.0765 1.0103.0287 2.013.0287 3.1788z" fill="#fff"/><path d="m28.8716 20.3537v5.1091c.6063 0 1.1724.0134 1.7385 0 .526-.0173.7325.2285.765.7414.0784 1.5366.0421 1.5942-1.4917 1.5942-1.7213 0-3.4426-.0154-5.1639 0-.6158 0-.9103-.2228-.8587-.849 0-.0691 0-.1383 0-.2074 0-1.2523 0-1.2523 1.2508-1.285.1549 0 .3098-.0249.5068-.0422v-5.0611c-.6063 0-1.1953-.0192-1.7825 0-.5393.0211-.7229-.2267-.742-.7414-.0593-1.6038-.0612-1.6134 1.5453-1.6134h1.0519c0-.557-.023-1.0353 0-1.5097.0746-1.31.809-2.1243 2.0196-2.497 1.4151-.4369 2.9283-.4369 4.3434 0 1.1685.3496 1.7805 1.3119 1.7212 2.5219-.021.3842-.1663.5417-.5431.5282-.4131-.0115-.8281-.023-1.2393 0-.5738.0365-.9792 0-1.0271-.7855-.0363-.6108-.6866-.5878-1.1609-.5666-.4743.0211-.9562.1133-.9926.7298-.0287.4802 0 .9604 0 1.5769h2.8076c1.5607 0 1.5473 0 1.5052 1.5846-.0153.5532-.2161.7856-.7841.7683-1.1342-.0249-2.2587.0039-3.4694.0039z" fill="#fff"/><path d="m40.0618 20.3535c0 1.5827-.0248 3.0732.0134 4.5617.0153.6012.4705.8586 1.2661.8567.6101 0 1.1035-.171 1.1934-.8663.0248-.3194.0324-.64.023-.9603-.0212-.1828-.0076-.3679.0401-.5455.3998-.8547 1.1877-.4706 1.8246-.5224.4724-.0365.8836.1651.9008.7241.0399.6401.0284 1.2824-.0344 1.9207-.0493.4975-.2446.9691-.5613 1.3549s-.7405.6683-1.2174.8117c-1.3333.4591-2.7724.5106-4.1349.1479-1.7691-.4418-2.5245-1.4367-2.557-3.2653-.0211-1.1255 0-2.253 0-3.3785v-.8394c-.6082 0-1.1475-.0134-1.6926 0-.459.0135-.6847-.192-.6885-.6472-.0134-1.8055-.1109-1.7287 1.5778-1.7056h.8033c0-.559 0-1.0757 0-1.5923.0172-1.0526.3194-1.358 1.3502-1.3791h.6885c.8262.0346 1.1475.3496 1.182 1.1908.0267.5494.0306 1.1006.0478 1.6519 0 .0153.0268.0326.1071.1248h3.2876c.7956 0 .9161.1268.9295.92 0 .1921-.0134.3688 0 .5513.0497.6473-.2218.9085-.8874.8854-1.1207-.0384-2.2434 0-3.4617 0z" fill="#fff"/><path d="m3.24939 16.4818v3.3247h2.19558c.64261 0 1.28713-.0288 1.92592.0173.81856.0596 1.28331.5954 1.25079 1.3445-.03251.7491-.50682 1.2235-1.35789 1.2312-1.30626.0135-2.61252 0-3.9991 0-.02104.2785-.05547.5186-.05738.7683v3.6494c-.01147.7414-.22759.9411-.95626.9603-.34234 0-.68851 0-1.03277 0-1.017464 0-1.21636747-.192-1.21828-1.1966 0-2.1845 0-4.369 0-6.5535 0-1.5634 0-3.1269 0-4.6904 0-1.0717.33278-1.4079 1.39423-1.4117h6.95587c.7937 0 .95627.1729.97157.9776v.6224c-.02486.7414-.21229.9353-.95627.9373-1.67346.0249-3.34692.0192-5.11601.0192z" fill="#fff"/><path d="m87.9343 25.3651c.6905-1.9208 1.8399-3.6821 1.6831-5.8352-.0233-.3679-.0188-.7371.0133-1.1044.0555-.7088.5738-.7856 1.1055-.7011.6483.1057 1.7213-.4629 1.8207.6223.1071 1.2562.1071 2.6506-.3347 3.7973-1.18 3.0597-2.6087 6.0253-3.9666 9.014-.3614.7951-1.2087 1.0429-1.9833.676-.742-.3495-1.004-1.1044-.6215-1.9207.3175-.6818.6847-1.3445 1.0557-2.0571-.8205-.1325-1.159-.6857-1.4363-1.3214-.4131-.9469-.8128-1.9035-1.291-2.8177-.7865-1.5433-1.1333-3.2748-1.0021-5.0035.0439-.7875.2161-.9853.9811-1.0007h1.1035c.8415 0 1.1265.2209 1.0347 1.0679-.2563 2.374.7803 4.387 1.6754 6.4479.0153.0346.0631.0557.1625.1364z" fill="#2dd4bf"/><path d="m72.4198 25.4262c0-1.3445 0-2.6179-.0096-3.9009-.0316-.1543-.1097-.2952-.2237-.4034-.1798-.2074-.3825-.3841-.5738-.5877-1.1475-1.1525-1.1245-1.6365.1052-2.6621.4992-.4149 1.0136-.4495 1.4841 0 .346.3652.6711.75.9735 1.1524 1.4879-1.7287 3.2417-1.817 5.0682-1.2754 1.6237.484 2.5494 2.4662 2.0254 4.0873-.0164.0683-.0442.1332-.0823.1921-.6139.7529-1.4478.3841-2.1822.3707-.6082 0-.6043-.5762-.6196-1.0449-.0383-1.2715-.985-1.9207-2.0656-1.3791-.2811.1441-.6139.5244-.6254.8087-.0612 1.5365-.0286 3.0731-.0286 4.6942.5737 0 1.0939.0135 1.6122 0 .5183-.0134.7937.1921.8167.7683.065 1.5366.0401 1.5769-1.509 1.5769-1.6728 0-3.3476 0-5.0242 0-.8224 0-.8855-.0749-.8951-.9181v-.0691c0-1.3138 0-1.3138 1.3024-1.3445.1052-.0346.2181-.0481.4514-.0654z" fill="#2dd4bf"/><path d="m62.295 16.4819c-.9563 0-1.8533-.0192-2.7407 0-.6483.0211-.9065-.267-.9295-.897-.0554-1.5731 0-1.6537 1.5396-1.6537h7.9868c.9199 0 1.0289.1171 1.0385 1.0314v.6204c.0286.6434-.2678.9162-.9142.8969-.8874-.0268-1.7749 0-2.7503 0v.897 9.1715c0 1.0736-.174 1.2408-1.2354 1.2446-1.9948 0-1.9948 0-1.9948-2.0091z" fill="#2dd4bf"/><g fill="#fff"><path d="m14.5715 25.4613v-5.403c-.6771 0-1.3388-.0192-1.9872 0-.5584.0192-.765-.2113-.7822-.7683-.0268-1.5808-.044-1.5808 1.5606-1.5808h3.1653c1.0614 0 1.2508.1767 1.2508 1.2274v5.6546.8662c.7516 0 1.4535.0192 2.1516 0 .5871-.0211.8606.2267.8224.8144-.0029.0461-.0029.0922 0 .1383.0153 1.3848.0153 1.3848-1.3388 1.3868h-6.8182c-.853 0-.9084-.0615-.918-.8913-.0134-1.4405-.0134-1.4405 1.4076-1.4405z"/><path d="m15.8777 16.7044h-.0689c-1.7786.0902-1.8035-.3842-1.6084-2.2069.0229-.2228.4533-.5359.7248-.5762.6601-.0615 1.3242-.0673 1.9852-.0173.4801.0192.7421.3322.7976.7951.0287.2737.0364.5492.0229.824-.0229.8605-.3098 1.1525-1.1666 1.1755-.2276.0058-.4571.0058-.6866.0058z"/><path d="m6.8715.0842285-2.40523 2.4068515-2.40523-2.4068515-2.06104 2.0624315 2.40523 2.40686-2.40523 2.40685 2.06104 2.06244 2.40523-2.40686 2.40523 2.40686 2.06104-2.06244-2.40523-2.40685 2.40523-2.40686z"/><path d="m50.8202 0-2.4052 2.40685-2.4052-2.40685-2.0611 2.06244 2.4053 2.40685-2.4053 2.40685 2.0611 2.06244 2.4052-2.40686 2.4052 2.40686 2.0611-2.06244-2.4053-2.40685 2.4053-2.40685z"/><path d="m21.9728 0-2.4052 2.40685-2.4052-2.40685-2.0611 2.06244 2.4052 2.40685-2.4052 2.40685 2.0611 2.06244 2.4052-2.40685 2.4052 2.40685 2.0611-2.06244-2.4053-2.40685 2.4053-2.40685z"/><path d="m37.1557 0-2.4052 2.40685-2.4053-2.40685-2.061 2.06244 2.4052 2.40685-2.4052 2.40685 2.061 2.06244 2.4053-2.40685 2.4052 2.40685 2.061-2.06244-2.4052-2.40685 2.4052-2.40685z"/></g></svg>

<svg width="93" height="32" viewBox="0 0 93 32" fill="none" xmlns="http://www.w3.org/2000/svg">
<path d="M69.7583 1.71182C69.6586 1.53974 69.2756 1.1997 68.6092 0.69178C67.885 0.133442 67.4443 -0.0868753 67.2869 0.0306707C66.9248 0.303521 66.5365 0.614128 66.122 0.962539C65.6707 1.34457 65.3165 1.66363 65.0594 1.91968C64.5819 2.36884 64.1516 2.77599 63.7686 3.14124C63.0497 3.83381 62.4568 4.42782 61.9898 4.92317C61.9583 4.89796 61.5464 4.64188 60.7541 4.15497C59.9827 3.6806 59.5918 3.43508 59.5812 3.4183C59.4028 3.53997 59.0303 3.88212 58.4636 4.44459C57.8969 5.01137 57.6135 5.322 57.6135 5.37653L60.1637 7.56781C60.169 7.57194 60.8747 8.19748 62.2809 9.44418C62.3386 9.47783 62.3885 9.4946 62.4305 9.4946C62.6718 9.17134 63.0418 8.71174 63.5403 8.11562C64.2696 7.25509 65.0253 6.41338 65.8071 5.59064C66.3423 5.02817 67.2186 4.18443 68.436 3.05937C69.349 2.21141 69.7898 1.76225 69.7583 1.71183L69.7583 1.71182Z" fill="#2DD4BF"/>
<path d="M50.3797 18.2969C51.4909 17.5613 52.5523 17.3366 53.7152 17.5421C55.4364 17.836 56.6777 19.0403 56.7561 20.7804C56.8479 22.8471 56.8077 24.9196 56.8192 26.9901C56.8192 27.526 56.5457 27.793 56.0102 27.7911C55.5282 27.7911 55.0539 27.7911 54.5624 27.7911C53.8357 27.7776 53.6291 27.574 53.6253 26.8307C53.6157 25.0598 53.6253 23.2889 53.6138 21.518C53.6023 20.4558 53.0114 19.918 51.9575 19.9391C50.942 19.9603 50.4161 20.4654 50.395 21.5487C50.3644 23.2274 50.3835 24.9061 50.3797 26.5868C50.3797 27.6528 50.2401 27.793 49.2035 27.7949C47.0997 27.7949 47.1628 27.9754 47.1686 25.7877C47.1781 22.3151 47.1686 18.8405 47.1686 15.3659C47.1686 14.8147 47.0959 14.1021 47.7251 13.9446C48.4235 13.7864 49.149 13.7936 49.8442 13.9657C50.0986 14.0272 50.3223 14.7052 50.351 15.1181C50.4275 16.1284 50.3797 17.1311 50.3797 18.2969Z" fill="white"/>
<path d="M28.8716 20.3537V25.4628C29.4779 25.4628 30.044 25.4762 30.6101 25.4628C31.1361 25.4455 31.3426 25.6913 31.3751 26.2042C31.4535 27.7408 31.4172 27.7984 29.8834 27.7984C28.1621 27.7984 26.4408 27.783 24.7195 27.7984C24.1037 27.7984 23.8092 27.5756 23.8608 26.9494C23.8608 26.8803 23.8608 26.8111 23.8608 26.742C23.8608 25.4897 23.8608 25.4897 25.1116 25.457C25.2665 25.457 25.4214 25.4321 25.6184 25.4148V20.3537C25.0121 20.3537 24.4231 20.3345 23.8359 20.3537C23.2966 20.3748 23.113 20.127 23.0939 19.6123C23.0346 18.0085 23.0327 17.9989 24.6392 17.9989H25.6911C25.6911 17.4419 25.6681 16.9636 25.6911 16.4892C25.7657 15.1792 26.5001 14.3649 27.7107 13.9922C29.1258 13.5553 30.639 13.5553 32.0541 13.9922C33.2226 14.3418 33.8346 15.3041 33.7753 16.5141C33.7543 16.8983 33.609 17.0558 33.2322 17.0423C32.8191 17.0308 32.4041 17.0193 31.9929 17.0423C31.4191 17.0788 31.0137 17.0423 30.9658 16.2568C30.9295 15.646 30.2792 15.669 29.8049 15.6902C29.3306 15.7113 28.8487 15.8035 28.8123 16.42C28.7836 16.9002 28.8123 17.3804 28.8123 17.9969H31.6199C33.1806 17.9969 33.1672 17.9969 33.1251 19.5815C33.1098 20.1347 32.909 20.3671 32.341 20.3498C31.2068 20.3249 30.0823 20.3537 28.8716 20.3537Z" fill="white"/>
<path d="M40.0618 20.3535C40.0618 21.9362 40.037 23.4267 40.0752 24.9152C40.0905 25.5164 40.5457 25.7738 41.3413 25.7719C41.9514 25.7719 42.4448 25.6009 42.5347 24.9056C42.5595 24.5862 42.5671 24.2656 42.5577 23.9453C42.5365 23.7625 42.5501 23.5774 42.5978 23.3998C42.9976 22.5451 43.7855 22.9292 44.4224 22.8774C44.8948 22.8409 45.306 23.0425 45.3232 23.6015C45.3631 24.2416 45.3516 24.8839 45.2888 25.5222C45.2395 26.0197 45.0442 26.4913 44.7275 26.8771C44.4108 27.2629 43.987 27.5454 43.5101 27.6888C42.1768 28.1479 40.7377 28.1994 39.3752 27.8367C37.6061 27.3949 36.8507 26.4 36.8182 24.5714C36.7971 23.4459 36.8182 22.3184 36.8182 21.1929V20.3535C36.21 20.3535 35.6707 20.3401 35.1256 20.3535C34.6666 20.367 34.4409 20.1615 34.4371 19.7063C34.4237 17.9008 34.3262 17.9776 36.0149 18.0007H36.8182C36.8182 17.4417 36.8182 16.925 36.8182 16.4084C36.8354 15.3558 37.1376 15.0504 38.1684 15.0293C38.3979 15.0293 38.6274 15.0293 38.8569 15.0293C39.6831 15.0639 40.0044 15.3789 40.0389 16.2201C40.0656 16.7695 40.0695 17.3207 40.0867 17.872C40.0867 17.8873 40.1135 17.9046 40.1938 17.9968C41.2438 17.9968 42.3626 17.9968 43.4814 17.9968C44.277 17.9968 44.3975 18.1236 44.4109 18.9168C44.4109 19.1089 44.3975 19.2856 44.4109 19.4681C44.4606 20.1154 44.1891 20.3766 43.5235 20.3535C42.4028 20.3151 41.2801 20.3535 40.0618 20.3535Z" fill="white"/>
<path d="M3.24939 16.4818V19.8065H5.44497C6.08758 19.8065 6.7321 19.7777 7.37089 19.8238C8.18945 19.8834 8.6542 20.4192 8.62168 21.1683C8.58917 21.9174 8.11486 22.3918 7.26379 22.3995C5.95753 22.413 4.65127 22.3995 3.26469 22.3995C3.24365 22.678 3.20922 22.9181 3.20731 23.1678C3.20731 24.3855 3.20731 25.6052 3.20731 26.8172C3.19584 27.5586 2.97972 27.7583 2.25105 27.7775C1.90871 27.7775 1.56254 27.7775 1.21828 27.7775C0.200816 27.7775 0.00191253 27.5855 0 26.5809C0 24.3964 0 22.2119 0 20.0274C0 18.464 0 16.9005 0 15.337C0 14.2653 0.33278 13.9291 1.39423 13.9253C3.71222 13.9253 6.03084 13.9253 8.3501 13.9253C9.1438 13.9253 9.30637 14.0982 9.32167 14.9029C9.32167 15.1104 9.32167 15.3178 9.32167 15.5253C9.29681 16.2667 9.10938 16.4606 8.3654 16.4626C6.69194 16.4875 5.01848 16.4818 3.24939 16.4818Z" fill="white"/>
<path d="M87.9343 25.3651C88.6248 23.4443 89.7742 21.683 89.6174 19.5299C89.5941 19.162 89.5986 18.7928 89.6307 18.4255C89.6862 17.7167 90.2045 17.6399 90.7362 17.7244C91.3845 17.8301 92.4575 17.2615 92.5569 18.3467C92.664 19.6029 92.664 20.9973 92.2222 22.144C91.0422 25.2037 89.6135 28.1693 88.2556 31.158C87.8942 31.9531 87.0469 32.2009 86.2723 31.834C85.5303 31.4845 85.2683 30.7296 85.6508 29.9133C85.9683 29.2315 86.3355 28.5688 86.7065 27.8562C85.886 27.7237 85.5475 27.1705 85.2702 26.5348C84.8571 25.5879 84.4574 24.6313 83.9792 23.7171C83.1927 22.1738 82.8459 20.4423 82.9771 18.7136C83.021 17.9261 83.1932 17.7283 83.9582 17.7129C84.3254 17.7129 84.6926 17.7129 85.0617 17.7129C85.9032 17.7129 86.1882 17.9338 86.0964 18.7808C85.8401 21.1548 86.8767 23.1678 87.7718 25.2287C87.7871 25.2633 87.8349 25.2844 87.9343 25.3651Z" fill="#2DD4BF"/>
<path d="M72.4198 25.4262C72.4198 24.0817 72.4198 22.8083 72.4102 21.5253C72.3786 21.371 72.3005 21.2301 72.1865 21.1219C72.0067 20.9145 71.804 20.7378 71.6127 20.5342C70.4652 19.3817 70.4882 18.8977 71.7179 17.8721C72.2171 17.4572 72.7315 17.4226 73.202 17.8721C73.548 18.2373 73.8731 18.6221 74.1755 19.0245C75.6634 17.2958 77.4172 17.2075 79.2437 17.7491C80.8674 18.2331 81.7931 20.2153 81.2691 21.8364C81.2527 21.9047 81.2249 21.9696 81.1868 22.0285C80.5729 22.7814 79.739 22.4126 79.0046 22.3992C78.3964 22.3992 78.4003 21.823 78.385 21.3543C78.3467 20.0828 77.4 19.4336 76.3194 19.9752C76.0383 20.1193 75.7055 20.4996 75.694 20.7839C75.6328 22.3204 75.6654 23.857 75.6654 25.4781C76.2391 25.4781 76.7593 25.4916 77.2776 25.4781C77.7959 25.4647 78.0713 25.6702 78.0943 26.2464C78.1593 27.783 78.1344 27.8233 76.5853 27.8233C74.9125 27.8233 73.2377 27.8233 71.5611 27.8233C70.7387 27.8233 70.6756 27.7484 70.666 26.9052V26.8361C70.666 25.5223 70.666 25.5223 71.9684 25.4916C72.0736 25.457 72.1865 25.4435 72.4198 25.4262Z" fill="#2DD4BF"/>
<path d="M62.295 16.4819C61.3387 16.4819 60.4417 16.4627 59.5543 16.4819C58.906 16.503 58.6478 16.2149 58.6248 15.5849C58.5694 14.0118 58.6248 13.9312 60.1644 13.9312C62.8267 13.9312 65.4889 13.9312 68.1512 13.9312C69.0711 13.9312 69.1801 14.0483 69.1897 14.9626C69.1897 15.17 69.1897 15.3775 69.1897 15.583C69.2183 16.2264 68.9219 16.4992 68.2755 16.4799C67.3881 16.4531 66.5006 16.4799 65.5252 16.4799V17.3769C65.5252 20.4347 65.5252 23.4919 65.5252 26.5484C65.5252 27.622 65.3512 27.7892 64.2898 27.793C62.295 27.793 62.295 27.793 62.295 25.7839V16.4819Z" fill="#2DD4BF"/>
<path d="M14.5715 25.4613V20.0583C13.8944 20.0583 13.2327 20.0391 12.5843 20.0583C12.0259 20.0775 11.8193 19.847 11.8021 19.29C11.7753 17.7092 11.7581 17.7092 13.3627 17.7092C14.4185 17.7092 15.4665 17.7092 16.528 17.7092C17.5894 17.7092 17.7788 17.8859 17.7788 18.9366C17.7788 20.8214 17.7788 22.7063 17.7788 24.5912V25.4574C18.5304 25.4574 19.2323 25.4766 19.9304 25.4574C20.5175 25.4363 20.791 25.6841 20.7528 26.2718C20.7499 26.3179 20.7499 26.364 20.7528 26.4101C20.7681 27.7949 20.7681 27.7949 19.414 27.7969H12.5958C11.7428 27.7969 11.6874 27.7354 11.6778 26.9056C11.6644 25.4651 11.6644 25.4651 13.0854 25.4651L14.5715 25.4613Z" fill="white"/>
<path d="M15.8777 16.7044H15.8088C14.0302 16.7946 14.0053 16.3202 14.2004 14.4975C14.2233 14.2747 14.6537 13.9616 14.9252 13.9213C15.5853 13.8598 16.2494 13.854 16.9104 13.904C17.3905 13.9232 17.6525 14.2362 17.708 14.6991C17.7367 14.9728 17.7444 15.2483 17.7309 15.5231C17.708 16.3836 17.4211 16.6756 16.5643 16.6986C16.3367 16.7044 16.1072 16.7044 15.8777 16.7044Z" fill="white"/>
<path d="M6.8715 0.0842285L4.46627 2.49108L2.06104 0.0842285L0 2.14666L2.40523 4.55352L0 6.96037L2.06104 9.02281L4.46627 6.61595L6.8715 9.02281L8.93254 6.96037L6.52731 4.55352L8.93254 2.14666L6.8715 0.0842285Z" fill="white"/>
<path d="M50.8202 0L48.415 2.40685L46.0098 0L43.9487 2.06244L46.354 4.46929L43.9487 6.87614L46.0098 8.93858L48.415 6.53172L50.8202 8.93858L52.8813 6.87614L50.476 4.46929L52.8813 2.06244L50.8202 0Z" fill="white"/>
<path d="M21.9728 0L19.5676 2.40685L17.1624 0L15.1013 2.06244L17.5065 4.46929L15.1013 6.87614L17.1624 8.93858L19.5676 6.53173L21.9728 8.93858L24.0339 6.87614L21.6286 4.46929L24.0339 2.06244L21.9728 0Z" fill="white"/>
<path d="M37.1557 0L34.7505 2.40685L32.3452 0L30.2842 2.06244L32.6894 4.46929L30.2842 6.87614L32.3452 8.93858L34.7505 6.53173L37.1557 8.93858L39.2167 6.87614L36.8115 4.46929L39.2167 2.06244L37.1557 0Z" fill="white"/>
</svg>
